build/svg/cmd/sc_arrowshapes.split-arrow.svg

<?xml version="1.0" encoding="UTF-8" standalone="no"?>
<svg
   xmlns:dc="http://purl.org/dc/elements/1.1/"
   xmlns:cc="http://creativecommons.org/ns#"
   xmlns:rdf="http://www.w3.org/1999/02/22-rdf-syntax-ns#"
   xmlns:svg="http://www.w3.org/2000/svg"
   xmlns="http://www.w3.org/2000/svg"
   xmlns:sodipodi="http://sodipodi.sourceforge.net/DTD/sodipodi-0.dtd"
   xmlns:inkscape="http://www.inkscape.org/namespaces/inkscape"
   viewBox="0 0 16 16"
   version="1.1"
   id="svg4"
   sodipodi:docname="sc_arrowshapes.split-arrow.svg"
   inkscape:export-filename="/home/jupiter007/Libreoffice yaru theme fullcolor/build/cmd/lc_arrowshapes.split-arrow.png"
   inkscape:export-xdpi="96"
   inkscape:export-ydpi="96"
   inkscape:version="0.92.4 (5da689c313, 2019-01-14)"><metadata
   id="metadata10">
  <rdf:RDF>
    <cc:Work
       rdf:about="">
      <dc:format>image/svg+xml</dc:format>
      <dc:type
         rdf:resource="http://purl.org/dc/dcmitype/StillImage" />
    </cc:Work>
  </rdf:RDF>
</metadata>
<defs
   id="defs8" />
<sodipodi:namedview
   pagecolor="#ffffff"
   bordercolor="#666666"
   borderopacity="1"
   objecttolerance="10"
   gridtolerance="10"
   guidetolerance="10"
   inkscape:pageopacity="0"
   inkscape:pageshadow="2"
   inkscape:window-width="1920"
   inkscape:window-height="1011"
   id="namedview6"
   showgrid="false"
   inkscape:zoom="14.75"
   inkscape:cx="0.44067797"
   inkscape:cy="8"
   inkscape:window-x="0"
   inkscape:window-y="32"
   inkscape:window-maximized="1"
   inkscape:current-layer="svg4" />
/&gt;<path
   style="fill:#000000;stroke:#000000;opacity:0.6;stroke-width:2;stroke-miterlimit:4;stroke-dasharray:none;stroke-linejoin:round"
   id="path817"
   fill="#232629"
   d="m2 2v4.25l1.40625-1.40625 3.59375 3.59375v5.5625h2v-5.5625l3.59375-3.59375 1.40625 1.40625v-4.25h-4.25l1.40625 1.40625-3.15625 3.15625-3.15625-3.15625 1.40625-1.40625z" />
<path
   d="m2 2v4.25l1.40625-1.40625 3.59375 3.59375v5.5625h2v-5.5625l3.59375-3.59375 1.40625 1.40625v-4.25h-4.25l1.40625 1.40625-3.15625 3.15625-3.15625-3.15625 1.40625-1.40625z"
   fill="#232629"
   id="path2"
   style="fill:#ffffff" />
</svg>

<svg xmlns="http://www.w3.org/2000/svg" viewBox="0 0 16 16">/&gt;<path d="M2 2v4.25l1.406-1.406L7 8.437V14h2V8.437l3.594-3.593L14 6.25V2H9.75l1.406 1.406L8 6.562 4.844 3.406 6.25 2z" stroke="#000" opacity=".6" stroke-width="2" stroke-linejoin="round"/><path d="M2 2v4.25l1.406-1.406L7 8.437V14h2V8.437l3.594-3.593L14 6.25V2H9.75l1.406 1.406L8 6.562 4.844 3.406 6.25 2z" fill="#fff"/></svg>
